img/assets-icon.svg

<svg width="24" height="24" viewBox="0 0 24 24" fill="none" xmlns="http://www.w3.org/2000/svg">
<path d="M21.6389 14.3957H17.5906C16.1042 14.3948 14.8993 13.1909 14.8984 11.7045C14.8984 10.218 16.1042 9.01409 17.5906 9.01318H21.6389" stroke="#2E2F30" stroke-width="1.5" stroke-linecap="round" stroke-linejoin="round"/>
<path d="M18.0485 11.6427H17.7369" stroke="#2E2F30" stroke-width="1.5" stroke-linecap="round" stroke-linejoin="round"/>
<path fill-rule="evenodd" clip-rule="evenodd" d="M7.74766 3H16.3911C19.2892 3 21.6388 5.34951 21.6388 8.24766V15.4247C21.6388 18.3229 19.2892 20.6724 16.3911 20.6724H7.74766C4.84951 20.6724 2.5 18.3229 2.5 15.4247V8.24766C2.5 5.34951 4.84951 3 7.74766 3Z" stroke="#2E2F30" stroke-width="1.5" stroke-linecap="round" stroke-linejoin="round"/>
<path opacity="0.4" d="M7.03564 7.5382H12.4346" stroke="#2E2F30" stroke-width="1.5" stroke-linecap="round" stroke-linejoin="round"/>
</svg>

<svg width="24" height="24" fill="none" xmlns="http://www.w3.org/2000/svg"><path d="M21.639 14.396H17.59a2.693 2.693 0 0 1-2.693-2.692 2.693 2.693 0 0 1 2.693-2.69h4.048M18.049 11.643h-.312" stroke="#2E2F30" stroke-width="1.5" stroke-linecap="round" stroke-linejoin="round"/><path clip-rule="evenodd" d="M7.748 3h8.643a5.248 5.248 0 0 1 5.248 5.248v7.177a5.248 5.248 0 0 1-5.248 5.247H7.748A5.248 5.248 0 0 1 2.5 15.425V8.248A5.248 5.248 0 0 1 7.748 3z" stroke="#2E2F30" stroke-width="1.5" stroke-linecap="round" stroke-linejoin="round"/><path opacity=".4" d="M7.036 7.538h5.399" stroke="#2E2F30" stroke-width="1.5" stroke-linecap="round" stroke-linejoin="round"/></svg>
